X:1
T:Make Some Other Heart Rejoice
T:Charles Millard Fillmore (1860-1952)
T:Make Some Other Heart Rejoice
T:Public Domain
T:Public Domain
C:Charles Millard Fillmore (1860-1952)
Z:Public Domain
%%score ( 1 2 ) ( 3 4 )
L:1/8
M:4/4
K:Ab
V:1 treble 
V:2 treble 
V:3 bass 
V:4 bass 
V:1
 [Ec]>[Fd] [Ec]>[DB] [CA]2 [CE]2 | [EG]2 [DF]2 [DF]4 | [DG]>[DA] [DG]>[DF] E2 [EG]2 | %3
w: 1.~Would you know earth’s high- est|hap- pi- ness?|Would you know its great- est|
w: 2.~Plea- sant smiles will cheer a|droop- ing heart,|Kind- ly words re- lieve a|
w: 3.~Ma- ny hearts are crushed with|bit- ter woe,|Ma- ny hearts with grief are|
 [DF]2 [CE]2 [Ec]4 | [Ec]>[Fd] [Ec]>[DB] [CA]2 [Ec]2 | [_Ge]2 [Fd]2 [Fd]4 | [Ec]>[Fd] [Ec]>[DB] | %7
w: ed- ness? Would|you know its tru- est joy-|ful- ness Make|some o- ther heart|
w: ter smart, Help-|ing hands to weak- ness strength|im- part, Make|some o- ther heart|
w: ing low, Ma-|ny hearts need help you can|be- stow, Make|some o- ther heart|
 [DF]2 [DG]2 | [CA]8 ||"^Refrain" E>E E>E (C>C C2) | F>F F>F (F>F F2) | G>G G>G (D>D) (D>D) | %12
w: re- joice.|||||
w: re- joice.|Give|a plea- sant smile, speak * *|word, Lend a hand to * *|ther; Give a plea- sant * smile, *|
w: re- joice.|||||
 [DF]4 [CE]4 | c>c c>c (_G>G G2) | d>d d>d (D>D D2) | G>G G>G (D>D) (D>D) | [DB]4 [CA]4 |] %17
w: |||||
w: word, Lend|a hand to help an- * *||||
w: |||||
V:2
 x8 | x8 | x4 E2 x2 | x8 | x8 | x8 | x4 | x4 | x8 || C2 C2 A4 | D2 D2 B4 | D2 D2 F2 G2 | x8 | %13
w: ||bless-|||||||||||
w: ||bit-|||||||a kind- ly|help a bro-|speak a kind- ly||
w: ||bend-|||||||||||
 E2 E2 e4 | F2 F2 F4 | D2 D2 F2 G2 | x8 |] %17
w: ||||
w: o- ther. *||||
w: ||||
V:3
 [A,,A,]>[A,,A,] [A,,A,]>[A,,A,] [A,,E,]2 [A,,A,]2 | [D,A,]2 [D,A,]2 [D,A,]4 | %2
 E,>E, E,>[E,F,] [E,G,]2 E,2 | [A,,A,]2 [A,,A,]2 [A,,A,]4 | A,>A, A,>A, A,2 [A,,A,]2 | %5
 [D,A,]2 [D,A,]2 [D,A,]4 | [E,A,]>[E,A,] [E,A,]>[E,A,] | [E,B,]2 E,2 | [A,,E,]8 || %9
 [A,,A,]2 [A,,A,]2 [A,,A,]>[A,,A,] [A,,A,]2 | [D,A,]2 [D,A,]2 [D,D]>[D,D] [D,D]2 | %11
 [E,B,]2 [E,B,]2 [E,B,]>[E,B,] [E,B,]>[E,B,] | [A,,A,]4 [A,,A,]4 | %13
 [A,,A,]2 [A,,A,]2 [C,A,]>[C,A,] [C,A,]2 | [D,A,]2 [D,A,]2 [D,A,]>[D,A,] [D,A,]2 | %15
 E,2 E,2 [E,B,]>[E,B,] [E,B,]>[E,B,] | [E,G,]4 [A,,A,]4 |] %17
V:4
 x8 | x8 | E,>E, E,3/2 x E,2 x3/2 | x8 | A,>A, A,>A, A,2 x2 | x8 | x4 | x2 E,2 | x8 || x8 | x8 | %11
 x8 | x8 | x8 | x8 | E,2 E,2 x4 | x8 |] %17

